icons/mobile/24/svg/device-desktop-24.svg

<svg width="24" height="24" viewBox="0 0 24 24" fill="none" xmlns="http://www.w3.org/2000/svg">
<path fill-rule="evenodd" clip-rule="evenodd" d="M12 5C13.8222 5 15.9503 5.11003 18.3047 5.44141C19.8461 5.65804 21 6.98331 21 8.54102V15.4619C21 16.5682 20.4187 17.5683 19.5176 18.125H21.125C21.6082 18.125 22 18.5168 22 19C22 19.4832 21.6082 19.875 21.125 19.875H2.875C2.39175 19.875 2 19.4832 2 19C2 18.5168 2.39175 18.125 2.875 18.125H4.49707C3.59396 17.5699 3 16.5753 3 15.459V8.53809C3 7.00109 4.11905 5.66415 5.66406 5.44531C7.53032 5.18118 9.65779 5 12 5ZM12 6.75C9.74821 6.75 7.70292 6.92484 5.90918 7.17871C5.25057 7.2722 4.75 7.84934 4.75 8.53809V15.459C4.75 16.1432 5.26009 16.7297 5.93848 16.8252C8.20193 17.1438 10.2483 17.25 12 17.25C14.2518 17.25 16.2971 17.0752 18.0908 16.8213C18.7494 16.7278 19.25 16.1507 19.25 15.4619V8.54102C19.25 7.85684 18.7399 7.27032 18.0615 7.1748C15.7981 6.85622 13.7517 6.75 12 6.75Z" fill="black"/>
</svg>

<!-- This Source Code Form is subject to the terms of the Mozilla Public
   - License, v. 2.0. If a copy of the MPL was not distributed with this
   - file, You can obtain one at http://mozilla.org/MPL/2.0/. -->
<svg xmlns="http://www.w3.org/2000/svg" width="24" height="24" fill="none" viewBox="0 0 24 24">
    <path fill="#000" fill-rule="evenodd" d="M12 5c1.822 0 3.95.11 6.305.441A3.136 3.136 0 0 1 21 8.541v6.92a3.13 3.13 0 0 1-1.482 2.664h1.607a.875.875 0 0 1 0 1.75H2.875a.875.875 0 0 1 0-1.75h1.622A3.13 3.13 0 0 1 3 15.459v-6.92C3 7 4.119 5.663 5.664 5.444A45 45 0 0 1 12 5m0 1.75a43.5 43.5 0 0 0-6.09.429c-.66.093-1.16.67-1.16 1.36v6.92c0 .684.51 1.27 1.188 1.366a43.5 43.5 0 0 0 12.153-.004 1.365 1.365 0 0 0 1.159-1.36v-6.92c0-.684-.51-1.27-1.189-1.366A43.5 43.5 0 0 0 12 6.75" clip-rule="evenodd" />
</svg>
